!! Stephen C. Foster, "Ah! May the red rose live alway!"
!! from 'Stephen Foster Song Book' Dover Publications (New York) pp. 2-4
!! NOTE:  Leading and trailing bars of rest have been omitted.
**kern
*M6/8
*MM81
*G:
=1
4dd;
16b
16b
4a
8g
=2
8a
4b
4e
8e
=3
8d
8c#
8d
4ccn
8b
=4
[4.a
4a]
8r
=5
4dd;
16b
16b
8cc
8b
8a
=6
8b
4g
4e
8r
=7
8d
8c#
8d
8f#
8b;
8a
=8
[4.g
4g]
8r
=9
8a
8f#
8g
4a
8a
=10
4b
8g
4b
8b
=11
8a
8f#
8g
4a
8f#
=12
[4.e
4e]
8r
=13
8a
8f#
8g
8a
4a
=14
4b
8g
4b
8b
=15
8cc#
8b
8cc#
4ff#
8ee
=16
{8dd
24ee
24dd
24cc#
8dd
4ee
8dd#}
=17
4ddn;
16b
16b
4a
8g
=18
8a
4b
4e
8e
=19
8d
8c#
8d
4ccn
8b
=20
[4.a
4a]
8r
=21
4dd;
16b
16b
8cc
8b
8a
=22
8b
4g
4e
8r
=23
8d
8c#
8d
8f#
8b;
8a
=24
[4.g
4g]
8r
==
*-
